X: 43
T: Rullen gaa
B:[[Notböcker/Melodier til gamle danske Almuedanse for Violin solo]]
O:Danmark
Z:Søren Bak Vestergaard
M: 2/4
L: 1/8
K: G
D|GG Bd|gB d2|cA c2|BA GD|GG Bd|gB d2|cA c2|BA G:|\
|:e|eeee|ee ce|ee ge|(.d.B) d2|cA c2|Bd g2|ee dd|cA G:|

